X: 10705
T: Downfall Of Paris, The
R: hornpipe
M: 4/4
K: Gmajor
G2 G>A G2 G>A|G2 A>B c>BA>G|A2 A>B A2 A>B|A2 (3GAB c>BA>G|
B2 B>A B3 A|(3Bcd g>f e2 (3dcB|A2 A>B A3 B|A>B (3cBA G>FE>F|
G2 G>A G2 G>A|G2 A>B c>BA>G|A2 A>B A2 A>B|A2 A>B c>BA>G|
B>aB>c d>ed>c|B>AB>c d2 d>c|B>dB>G A2 (3cAF|G2 G2 G2:|
d2 d>B (3ded d>B|(3efe d2 (3cdc B2|c2 c>B c2 c>A|d2 c2 (3BcB A2|
B2 B>A B2 B>A|B>dg>f e>dc>B|A2 A>B A2 A>B|A>Bc>A G2 (3DEF|
G2 G>A (3GGG G>A|G2 A>B c>BA>G|A2 A>B (3AAA A>B|A2 A>B c>BA>G|
B>^AB>c d>ed>c|B2 (3ABc d>ed>c|(3Bcd B>G (3ABc (3AGF|G2 (3GGG G2:|
d2 e>f g>fe>d|B>dg>e d>cB>A|G2 (3GGG A2 (3AAA|B2 (3BBB (3ABA (3ABc|
d2 e>f g2 (3fed|(3Bcd g>e d2 (3cBA|G2 (3ABc B>GA>F|G2 (3B^AB G2:|
F2 G2 A2 B2|c2 (3BcB (3ABA (3GFE|F3 G A3 B|c2 (3BcB A2 B>c|
d2 e>f g>fe>d|B>dg>e d>cB>A|G2 (3ABc B>GA>F|(3GGG (3AGF G2:|

